X:14
T:Muster
C:Roy Watrous
S:The Watrous Book, 1992
M:2/4
L:1/16
Q:1/4=90
K:G
%%MIDI program 72
%%MIDI transpose 8
%%MIDI ratio 3 1
d2|.g2gb agfe|(de)fg B2GA|B2Te2 dBGA|BGAB E2D2|G2gb agfe|
defg B2GA|B2Te2 dBGA|.B2!tenuto!f2 .g2::B2|e3f g2f2|Te2B2 TB2E2|TE2B2 Te2b2|
agfg e2:|[K:D]fe|d3e .d2A2|Bgfe d2cd|e3f .e2c2|Aagf e2de|fz g f ze dz|
B2ef g2fg|a2A2 bagf|egfe d2:|]

